Blender/apps/48/urbanterror.svg

<svg xmlns="http://www.w3.org/2000/svg" width="64" height="64" version="1">
 <rect style="fill:#2a74c2" width="56" height="56" x="4" y="4" rx="3" ry="3"/>
 <g style="opacity:0.2" transform="matrix(1.7063105,1,-0.98513358,1.73206,57.215758,3.6985)">
  <path d="M 2,9 8,9 8,21 2,21 Z"/>
  <path d="m 2,22 6,0 0,3 -6,0 z"/>
  <path d="m 3,10 4,0 0,10 -4,0 z"/>
  <path d="m 3,23 4,0 0,1 -4,0 z"/>
 </g>
 <g style="opacity:0.2" transform="matrix(1.93186,0.51764,-0.51764,1.93186,33.07792,-9.4375)">
  <path d="M 2,9 8,9 8,21 2,21 Z"/>
  <path d="m 2,22 6,0 0,3 -6,0 z"/>
  <path d="m 3,10 4,0 0,10 -4,0 z"/>
  <path d="m 3,23 4,0 0,1 -4,0 z"/>
 </g>
 <path style="opacity:0.1;fill:#ffffff" d="m 7.0008875,4 c -1.662,0 -3,1.338 -3,3 l 0,1 c 0,-1.662 1.338,-3 3,-3 L 57.000888,5 c 1.661999,0 3,1.338 3,3 l 0,-1 c 0,-1.662 -1.338001,-3 -3,-3 L 7.0008875,4 Z"/>
 <g style="opacity:0.2" transform="matrix(1.93186,-0.51764,0.51764,1.93186,-6.52248,5.7389)">
  <path d="M 2,9 8,9 8,21 2,21 Z"/>
  <path d="m 2,22 6,0 0,3 -6,0 z"/>
  <path d="m 3,10 4,0 0,10 -4,0 z"/>
  <path d="m 3,23 4,0 0,1 -4,0 z"/>
 </g>
 <g transform="matrix(1.93186,-0.51764,0.51764,1.93186,-6.52248,4.739)">
  <path style="fill:#ffffff" d="M 2,9 8,9 8,21 2,21 Z"/>
  <path style="fill:#ffffff" d="m 2,22 6,0 0,3 -6,0 z"/>
  <path style="fill:#b0b0b0" d="m 3,10 4,0 0,10 -4,0 z"/>
  <path style="fill:#b0b0b0" d="m 3,23 4,0 0,1 -4,0 z"/>
 </g>
 <g transform="matrix(1.93186,0.51764,-0.51764,1.93186,33.07792,-10.4374)">
  <path style="fill:#ffffff" d="M 2,9 8,9 8,21 2,21 Z"/>
  <path style="fill:#ffffff" d="m 2,22 6,0 0,3 -6,0 z"/>
  <path style="fill:#b0b0b0" d="m 3,10 4,0 0,10 -4,0 z"/>
  <path style="fill:#b0b0b0" d="m 3,23 4,0 0,1 -4,0 z"/>
 </g>
 <g transform="matrix(1.73206,1,-1,1.73206,57.53592,2.6988)">
  <path style="fill:#ffffff" d="M 2,9 8,9 8,21 2,21 Z"/>
  <path style="fill:#ffffff" d="m 2,22 6,0 0,3 -6,0 z"/>
  <path style="fill:#b0b0b0" d="m 3,10 4,0 0,10 -4,0 z"/>
  <path style="fill:#b0b0b0" d="m 3,23 4,0 0,1 -4,0 z"/>
 </g>
 <path style="opacity:0.2" d="m 4.0008875,57 0,1 c 0,1.662 1.338,3 3,3 l 50.0000005,0 c 1.661999,0 2.999999,-1.338 3,-3 l 0,-1 c -1e-6,1.662 -1.338001,3 -3,3 L 7.0008875,60 c -1.662,0 -3,-1.338 -3,-3 z"/>
</svg>

<?xml version="1.0" encoding="UTF-8" standalone="no"?>
<svg xmlns:dc="http://purl.org/dc/elements/1.1/" xmlns:cc="http://creativecommons.org/ns#" xmlns:rdf="http://www.w3.org/1999/02/22-rdf-syntax-ns#" xmlns:svg="http://www.w3.org/2000/svg" xmlns="http://www.w3.org/2000/svg" xmlns:sodipodi="http://sodipodi.sourceforge.net/DTD/sodipodi-0.dtd" xmlns:inkscape="http://www.inkscape.org/namespaces/inkscape" inkscape:version="1.0beta2 (2b71d25d45, 2019-12-03)" sodipodi:docname="urbanterror.svg" id="svg68" version="1" height="64" width="64">
  <metadata id="metadata74">
    <rdf:RDF>
      <cc:Work rdf:about="">
        <dc:format>image/svg+xml</dc:format>
        <dc:type rdf:resource="http://purl.org/dc/dcmitype/StillImage" />
      </cc:Work>
    </rdf:RDF>
  </metadata>
  <defs id="defs72" />
  <sodipodi:namedview inkscape:current-layer="svg68" inkscape:cy="32" inkscape:cx="32" inkscape:zoom="12.07" showgrid="false" id="namedview70" inkscape:window-height="480" inkscape:window-width="640" inkscape:pageshadow="2" inkscape:pageopacity="0" guidetolerance="10" gridtolerance="10" objecttolerance="10" borderopacity="1" inkscape:document-rotation="0" bordercolor="#666666" pagecolor="#ffffff" />
  <rect id="rect2" ry="29.09" rx="29.09" y="2.91" x="2.91" height="58.18" width="58.18" style="fill:#448ca8;stroke-width:1.039" />
  <g id="g12" transform="matrix(1.397,0.8191,-0.8068,1.418,51.29,7.144)" style="opacity:0.2">
    <path inkscape:connector-curvature="0" id="path4" d="M 2,9 H 8 V 21 H 2 Z" />
    <path inkscape:connector-curvature="0" id="path6" d="M 2,22 H 8 V 25 H 2 Z" />
    <path inkscape:connector-curvature="0" id="path8" d="M 3,10 H 7 V 20 H 3 Z" />
    <path inkscape:connector-curvature="0" id="path10" d="M 3,23 H 7 V 24 H 3 Z" />
  </g>
  <g id="g22" transform="matrix(1.583,0.4239,-0.4239,1.583,31.53,-3.615)" style="opacity:0.2">
    <path inkscape:connector-curvature="0" id="path14" d="M 2,9 H 8 V 21 H 2 Z" />
    <path inkscape:connector-curvature="0" id="path16" d="M 2,22 H 8 V 25 H 2 Z" />
    <path inkscape:connector-curvature="0" id="path18" d="M 3,10 H 7 V 20 H 3 Z" />
    <path inkscape:connector-curvature="0" id="path20" d="M 3,23 H 7 V 24 H 3 Z" />
  </g>
  <g id="g34" transform="matrix(1.583,-0.4239,0.4239,1.583,-0.9063,8.814)" style="opacity:0.2">
    <path inkscape:connector-curvature="0" id="path26" d="M 2,9 H 8 V 21 H 2 Z" />
    <path inkscape:connector-curvature="0" id="path28" d="M 2,22 H 8 V 25 H 2 Z" />
    <path inkscape:connector-curvature="0" id="path30" d="M 3,10 H 7 V 20 H 3 Z" />
    <path inkscape:connector-curvature="0" id="path32" d="M 3,23 H 7 V 24 H 3 Z" />
  </g>
  <g id="g44" transform="matrix(1.583,-0.4239,0.4239,1.583,-0.9063,7.995)">
    <path inkscape:connector-curvature="0" id="path36" d="M 2,9 H 8 V 21 H 2 Z" style="fill:#ffffff" />
    <path inkscape:connector-curvature="0" id="path38" d="M 2,22 H 8 V 25 H 2 Z" style="fill:#ffffff" />
    <path inkscape:connector-curvature="0" id="path40" d="M 3,10 H 7 V 20 H 3 Z" style="fill:#b0b0b0" />
    <path inkscape:connector-curvature="0" id="path42" d="M 3,23 H 7 V 24 H 3 Z" style="fill:#b0b0b0" />
  </g>
  <g id="g54" transform="matrix(1.583,0.4239,-0.4239,1.583,31.53,-4.434)">
    <path inkscape:connector-curvature="0" id="path46" d="M 2,9 H 8 V 21 H 2 Z" style="fill:#ffffff" />
    <path inkscape:connector-curvature="0" id="path48" d="M 2,22 H 8 V 25 H 2 Z" style="fill:#ffffff" />
    <path inkscape:connector-curvature="0" id="path50" d="M 3,10 H 7 V 20 H 3 Z" style="fill:#b0b0b0" />
    <path inkscape:connector-curvature="0" id="path52" d="M 3,23 H 7 V 24 H 3 Z" style="fill:#b0b0b0" />
  </g>
  <g id="g64" transform="matrix(1.418,0.8191,-0.8191,1.418,51.56,6.324)">
    <path inkscape:connector-curvature="0" id="path56" d="M 2,9 H 8 V 21 H 2 Z" style="fill:#ffffff" />
    <path inkscape:connector-curvature="0" id="path58" d="M 2,22 H 8 V 25 H 2 Z" style="fill:#ffffff" />
    <path inkscape:connector-curvature="0" id="path60" d="M 3,10 H 7 V 20 H 3 Z" style="fill:#b0b0b0" />
    <path inkscape:connector-curvature="0" id="path62" d="M 3,23 H 7 V 24 H 3 Z" style="fill:#b0b0b0" />
  </g>
</svg>
